Quickit/src/img/icons/tw.svg

<svg width="22" height="19" viewBox="0 0 22 19" fill="none" xmlns="http://www.w3.org/2000/svg">
<path fill-rule="evenodd" clip-rule="evenodd" d="M18.2814 0.979339C18.367 0.955684 18.451 0.932672 18.5336 0.910039C19.2554 0.712321 19.8715 0.54355 20.5244 0.228351C20.7014 0.132496 20.9084 0.08932 21.1214 0.115356C21.6231 0.176675 22.0001 0.602608 22.0001 1.10797V1.10897C22.0001 1.20085 21.9875 1.2908 21.9636 1.37677C21.771 2.12788 21.2635 3.15995 20.8659 3.94043C20.7632 4.14199 20.6687 4.32475 20.5821 4.49231C20.4832 4.68379 20.3945 4.85542 20.3154 5.01261C20.2571 5.1286 20.213 5.21933 20.182 5.28678C20.1742 6.58862 19.9951 7.88403 19.6492 9.1396L19.6478 9.14442C18.4203 13.5141 15.2065 16.4452 11.3131 17.5763L11.3129 17.5763C7.8769 18.5738 3.99812 17.8719 0.521531 15.977C0.113735 15.7548 -0.0873581 15.281 0.036058 14.8332C0.159474 14.3855 0.574912 14.0817 1.039 14.0997C2.44502 14.1544 3.6941 13.8014 4.94842 13.1575C3.65017 12.3553 2.71768 11.4203 2.07835 10.4102C1.19621 9.01645 0.919044 7.55385 0.931903 6.25147C0.944686 4.95679 1.24338 3.804 1.53097 2.98485C1.67574 2.57249 1.82037 2.23714 1.93066 2.00147C1.98588 1.88346 2.03275 1.7899 2.06707 1.7236C2.08423 1.69044 2.09829 1.66405 2.1087 1.64478L2.12155 1.62125L2.12581 1.61356L2.12739 1.61074L2.12803 1.6096C2.12831 1.6091 2.12858 1.60862 3.0001 2.09897L2.12858 1.60862C2.29619 1.3107 2.60438 1.11904 2.9457 1.10045C3.28703 1.08185 3.61421 1.2389 3.8132 1.51684C5.29896 3.59212 7.49453 4.86221 9.9998 5.07154C9.98829 2.96628 11.3127 1.15817 13.2694 0.42547C14.8937 -0.182728 16.8162 -0.253204 18.2814 0.979339ZM3.3005 4.00523C3.10579 4.6413 2.94013 5.42798 2.93181 6.27122C2.92191 7.27297 3.13337 8.33742 3.7683 9.34058C4.40179 10.3415 5.50381 11.3558 7.39974 12.1823C7.73518 12.3285 7.96396 12.6463 7.99621 13.0108C8.02847 13.3753 7.85905 13.7284 7.5545 13.9312C6.60281 14.5652 5.62155 15.1193 4.56931 15.5095C6.72357 16.1388 8.85922 16.206 10.7551 15.6557M3.3005 4.00523C5.314 6.04695 8.03725 7.17508 11.0257 7.09864C11.5678 7.08477 12.0001 6.64129 12.0001 6.09897V5.09897H12.0002L12 5.08525C11.9831 3.85408 12.7462 2.757 13.9708 2.29847C15.3614 1.77774 16.5144 1.93015 17.2517 2.76219C17.509 3.05256 17.911 3.16789 18.2831 3.05808C18.4914 2.99663 18.7106 2.9368 18.938 2.87476C19.0242 2.85123 19.1116 2.82738 19.2 2.80301C19.1617 2.87926 19.1229 2.95584 19.0838 3.03251C18.9951 3.20669 18.9026 3.38586 18.8145 3.55645C18.7078 3.76299 18.6077 3.95694 18.5286 4.1142C18.454 4.2626 18.384 4.40588 18.3312 4.52644C18.3052 4.58576 18.2762 4.65552 18.2521 4.72652C18.2516 4.72774 18.2512 4.72915 18.2506 4.73072C18.2363 4.77243 18.1811 4.93354 18.1821 5.12651C18.1886 6.302 18.0337 7.47282 17.7216 8.60615C16.6906 12.2729 14.0211 14.7068 10.7553 15.6556" fill="#1F2025"/>
</svg>

<svg xmlns="http://www.w3.org/2000/svg" width="22" height="19" fill="none" xmlns:v="https://vecta.io/nano"><path fill-rule="evenodd" d="M18.281.979l.252-.069c.722-.198 1.338-.366 1.991-.682.177-.096.384-.139.597-.113a1 1 0 0 1 .879.993v.001a1 1 0 0 1-.037.268c-.193.751-.7 1.783-1.098 2.564l-.284.552-.267.52-.133.274a14.84 14.84 0 0 1-.533 3.853l-.001.005a12 12 0 0 1-8.335 8.432h0c-3.436.997-7.315.296-10.791-1.599a1 1 0 0 1 .517-1.877c1.406.055 2.655-.298 3.909-.942-1.298-.802-2.231-1.737-2.87-2.747C1.196 9.016.919 7.554.932 6.251c.013-1.295.311-2.447.599-3.267.145-.412.289-.748.4-.983a7.79 7.79 0 0 1 .136-.278l.042-.079.013-.024.004-.008.002-.003.001-.001c0 0 .001-.001.872.489l-.872-.49a1 1 0 0 1 1.685-.092C5.299 3.592 7.495 4.862 10 5.072c-.012-2.105 1.313-3.913 3.27-4.646 1.624-.608 3.547-.679 5.012.554zM3.301 4.005c-.195.636-.36 1.423-.369 2.266-.01 1.002.202 2.066.836 3.069s1.736 2.015 3.631 2.842a1 1 0 0 1 .155 1.749c-.952.634-1.933 1.188-2.985 1.578 2.154.629 4.29.697 6.186.146M3.301 4.005c2.014 2.042 4.737 3.17 7.725 3.093a1 1 0 0 0 .974-1v-1h0v-.014c-.017-1.231.746-2.328 1.971-2.787 1.391-.521 2.544-.368 3.281.464a1 1 0 0 0 1.031.296l.655-.183.262-.072-.116.229-.269.524-.286.558a9.09 9.09 0 0 0-.197.412c-.026.059-.055.129-.079.2a1.23 1.23 0 0 0-.07.4 12.84 12.84 0 0 1-.46 3.48 10 10 0 0 1-6.966 7.049" fill="#1f2025"/></svg>
